images/beehive.svg

<?xml version="1.0" encoding="UTF-8" standalone="no"?>
<!-- Created with Inkscape (http://www.inkscape.org/) -->

<svg xmlns:dc="http://purl.org/dc/elements/1.1/" xmlns:cc="http://creativecommons.org/ns#" xmlns:rdf="http://www.w3.org/1999/02/22-rdf-syntax-ns#" xmlns:svg="http://www.w3.org/2000/svg" xmlns="http://www.w3.org/2000/svg" xmlns:sodipodi="http://sodipodi.sourceforge.net/DTD/sodipodi-0.dtd" xmlns:inkscape="http://www.inkscape.org/namespaces/inkscape" width="16" height="16" viewBox="0 0 4.2333334 4.2333334" version="1.1" id="svg8" inkscape:version="0.92.4 (5da689c313, 2019-01-14)" sodipodi:docname="beehive.svg">
  <defs id="defs2" />
  <sodipodi:namedview id="base" pagecolor="#ffffff" bordercolor="#666666" borderopacity="1.0" inkscape:pageopacity="0.0" inkscape:pageshadow="2" inkscape:zoom="16" inkscape:cx="8.1653954" inkscape:cy="11.762913" inkscape:document-units="mm" inkscape:current-layer="svg8" showgrid="false" inkscape:window-width="1881" inkscape:window-height="1061" inkscape:window-x="0" inkscape:window-y="0" inkscape:window-maximized="1" inkscape:pagecheckerboard="true" units="px">
    <inkscape:grid type="xygrid" id="grid1407" units="px" spacingx="0.26458333" spacingy="0.26458333" snapvisiblegridlinesonly="true" enabled="true" />
  </sodipodi:namedview>
  <metadata id="metadata5">
    <rdf:RDF>
      <cc:Work rdf:about="">
        <dc:format>image/svg+xml</dc:format>
        <dc:type rdf:resource="http://purl.org/dc/dcmitype/StillImage" />
        <dc:title />
      </cc:Work>
    </rdf:RDF>
  </metadata>
  <path style="opacity:0.5;fill:#030c25;fill-opacity:1;fill-rule:nonzero;stroke:#fdfdfd;stroke-width:3.00000004;stroke-linecap:round;stroke-linejoin:round;stroke-miterlimit:4;stroke-dasharray:none;stroke-dashoffset:0;stroke-opacity:1;paint-order:normal" d="M 5.8242188 2 C 5.2695128 2 4.8242187 2.4472471 4.8242188 3.0019531 C 4.8242188 3.5566591 5.2695128 4.0039063 5.8242188 4.0039062 L 10.244141 4.0039062 C 10.798847 4.0039062 11.246094 3.5566591 11.246094 3.0019531 C 11.246094 2.4472471 10.798847 2 10.244141 2 L 5.8242188 2 z M 3.5390625 5.0136719 C 2.9843565 5.0136719 2.5371094 5.4589659 2.5371094 6.0136719 C 2.5371094 6.5683779 2.9843565 7.015625 3.5390625 7.015625 L 12.460938 7.015625 C 13.015642 7.015625 13.462891 6.5683779 13.462891 6.0136719 C 13.462891 5.4589659 13.015642 5.0136719 12.460938 5.0136719 L 3.5390625 5.0136719 z M 2.4003906 8 C 1.8456846 8 1.3984375 8.445294 1.3984375 9 C 1.3984375 9.554706 1.8456846 10.001953 2.4003906 10.001953 L 13.669922 10.001953 C 14.224628 10.001953 14.669922 9.554706 14.669922 9 C 14.669922 8.445294 14.224628 8 13.669922 8 L 2.4003906 8 z M 2.0019531 10.996094 C 1.4472471 10.996094 1 11.443341 1 11.998047 C 1 12.552753 1.4472471 13 2.0019531 13 L 13.998047 13 C 14.552753 13 15 12.552753 15 11.998047 C 15 11.443341 14.552753 10.996094 13.998047 10.996094 L 2.0019531 10.996094 z " transform="scale(0.26458333)" id="rect1404" />
  <path style="opacity:1;fill:#030c25;fill-opacity:1;fill-rule:nonzero;stroke:none;stroke-width:3.00000024;stroke-linecap:round;stroke-linejoin:round;stroke-miterlimit:4;stroke-dasharray:none;stroke-dashoffset:0;stroke-opacity:1;paint-order:normal" d="M 5.8242188 2 C 5.2695128 2 4.8242187 2.4472471 4.8242188 3.0019531 C 4.8242188 3.5566591 5.2695128 4.0039063 5.8242188 4.0039062 L 10.244141 4.0039062 C 10.798847 4.0039062 11.246094 3.5566591 11.246094 3.0019531 C 11.246094 2.4472471 10.798847 2 10.244141 2 L 5.8242188 2 z M 3.5390625 5.0136719 C 2.9843565 5.0136719 2.5371094 5.4589659 2.5371094 6.0136719 C 2.5371094 6.5683779 2.9843565 7.015625 3.5390625 7.015625 L 12.460938 7.015625 C 13.015636 7.015625 13.462891 6.5683779 13.462891 6.0136719 C 13.462891 5.4589659 13.015636 5.0136719 12.460938 5.0136719 L 3.5390625 5.0136719 z M 2.4003906 8 C 1.8456846 8 1.3984375 8.445294 1.3984375 9 C 1.3984375 9.554706 1.8456846 10.001953 2.4003906 10.001953 L 13.669922 10.001953 C 14.224628 10.001953 14.669922 9.554706 14.669922 9 C 14.669922 8.445294 14.224628 8 13.669922 8 L 2.4003906 8 z M 2.0019531 10.996094 C 1.4472471 10.996094 1 11.443341 1 11.998047 C 1 12.552753 1.4472471 13 2.0019531 13 C 3.5023005 12.99257 4.7413571 12.999343 6.0410156 13 A 1.964949 2.6295529 0 0 1 6.0351562 12.796875 A 1.964949 2.6295529 0 0 1 6.5703125 10.996094 L 2.0019531 10.996094 z M 9.4296875 10.996094 A 1.964949 2.6295529 0 0 1 9.9648438 12.796875 A 1.964949 2.6295529 0 0 1 9.9570312 13 C 11.249338 13.002162 12.536794 13 13.998047 13 C 14.552753 13 15 12.552753 15 11.998047 C 15 11.443341 14.552753 10.996094 13.998047 10.996094 L 9.4296875 10.996094 z " transform="scale(0.26458333)" id="rect1394" />
</svg>

<svg xmlns="http://www.w3.org/2000/svg" width="16" height="16">
    <path d="M5.823 2.004a.998.998 0 00-1.002.998.999.999 0 001.002 1.001h4.422a1.002 1.002 0 100-2.003H5.819zM3.536 5.017a1.002 1.002 0 100 2.003h8.924a1.002 1.002 0 100-2.003H3.54zM2.403 8.003a1.002 1.002 0 100 2.003h11.262a1.002 1.002 0 100-2.003H2.406zm-.401 2.994a1.002 1.002 0 100 2.003h11.996a1.002 1.002 0 100-2.003z" opacity=".5" fill="#030c25" stroke="#fdfdfd" stroke-width="3" stroke-linecap="round" stroke-linejoin="round"/>
    <path d="M5.823 2.004a.998.998 0 00-1.002.998.999.999 0 001.002 1.001h4.422a1.002 1.002 0 100-2.003H5.819zM3.536 5.017a1.002 1.002 0 100 2.003h8.924a1.002 1.002 0 100-2.003H3.54zM2.403 8.003a1.002 1.002 0 100 2.003h11.262a1.002 1.002 0 100-2.003H2.406zm-.401 2.994a1.002 1.002 0 100 2.003c1.5-.004 2.736 0 4.036 0a1.965 2.63 0 01-.003-.2 1.965 2.63 0 01.533-1.803zm7.427 0a1.965 2.63 0 01.536 1.803 1.965 2.63 0 01-.011.204h4.044a1.002 1.002 0 100-2.004H9.425z" fill="#030c25"/>
</svg>
